content/blog/plugin-impl/separation-temporary.svg

<svg xmlns="http://www.w3.org/2000/svg" xmlns:xlink="http://www.w3.org/1999/xlink" width="261" height="311" style="background-color:#fff" viewBox="-0.5 -0.5 261 311"><defs><style>@import url(https://fonts.googleapis.com/css?family=Inter);</style></defs><path fill="none" stroke="#000" stroke-miterlimit="10" d="M60 170 97.31 67.39" pointer-events="stroke"/><path stroke="#000" stroke-miterlimit="10" d="m99.62 61.05 1.15 10-3.46-3.66-5 .58Z" pointer-events="all"/><path fill="none" stroke="#000" stroke-miterlimit="10" d="M130 250V67.87" pointer-events="stroke"/><path stroke="#000" stroke-miterlimit="10" d="m130 61.12 4.5 9-4.5-2.25-4.5 2.25Z" pointer-events="all"/><path fill="#fff2cc" stroke="#d6b656" d="M70 250h120v60H70z" pointer-events="all"/><switch transform="translate(-.5 -.5)"><foreignObject width="100%" height="100%" pointer-events="none" requiredFeatures="http://www.w3.org/TR/SVG11/feature#Extensibility" style="overflow:visible;text-align:left"><div xmlns="http://www.w3.org/1999/xhtml" style="display:flex;align-items:unsafe center;justify-content:unsafe center;width:118px;height:1px;padding-top:280px;margin-left:71px"><div style="box-sizing:border-box;font-size:0;text-align:center"><div style="display:inline-block;font-size:18px;font-family:SF Mono;color:#000;line-height:1.2;pointer-events:all;white-space:normal;overflow-wrap:normal">plugin2</div></div></div></foreignObject><text x="130" y="285" font-family="SF Mono" font-size="18" text-anchor="middle">plugin2</text></switch><path fill="none" stroke="#000" stroke-miterlimit="10" d="M200 170 162.69 67.39" pointer-events="stroke"/><path stroke="#000" stroke-miterlimit="10" d="m160.38 61.05 7.31 6.92-5-.58-3.46 3.66Z" pointer-events="all"/><path fill="#fff2cc" stroke="#d6b656" d="M140 170h120v60H140z" pointer-events="all"/><switch transform="translate(-.5 -.5)"><foreignObject width="100%" height="100%" pointer-events="none" requiredFeatures="http://www.w3.org/TR/SVG11/feature#Extensibility" style="overflow:visible;text-align:left"><div xmlns="http://www.w3.org/1999/xhtml" style="display:flex;align-items:unsafe center;justify-content:unsafe center;width:118px;height:1px;padding-top:200px;margin-left:141px"><div style="box-sizing:border-box;font-size:0;text-align:center"><div style="display:inline-block;font-size:18px;font-family:Helvetica;color:#000;line-height:1.2;pointer-events:all;white-space:normal;overflow-wrap:normal"><font face="SF Mono">plugin3</font></div></div></div></foreignObject><text x="200" y="205" font-family="Helvetica" font-size="18" text-anchor="middle">plugin3</text></switch><path fill="#fff2cc" stroke="#d6b656" d="M0 170h120v60H0z" pointer-events="all"/><switch transform="translate(-.5 -.5)"><foreignObject width="100%" height="100%" pointer-events="none" requiredFeatures="http://www.w3.org/TR/SVG11/feature#Extensibility" style="overflow:visible;text-align:left"><div xmlns="http://www.w3.org/1999/xhtml" style="display:flex;align-items:unsafe center;justify-content:unsafe center;width:118px;height:1px;padding-top:200px;margin-left:1px"><div style="box-sizing:border-box;font-size:0;text-align:center"><div style="display:inline-block;font-size:18px;font-family:Helvetica;color:#000;line-height:1.2;pointer-events:all;white-space:normal;overflow-wrap:normal"><font face="SF Mono">plugin1</font></div></div></div></foreignObject><text x="60" y="205" font-family="Helvetica" font-size="18" text-anchor="middle">plugin1</text></switch><path fill="#dae8fc" stroke="#6c8ebf" d="M70 0h120v60H70z" pointer-events="all"/><switch transform="translate(-.5 -.5)"><foreignObject width="100%" height="100%" pointer-events="none" requiredFeatures="http://www.w3.org/TR/SVG11/feature#Extensibility" style="overflow:visible;text-align:left"><div xmlns="http://www.w3.org/1999/xhtml" style="display:flex;align-items:unsafe center;justify-content:unsafe center;width:118px;height:1px;padding-top:30px;margin-left:71px"><div style="box-sizing:border-box;font-size:0;text-align:center"><div style="display:inline-block;font-size:18px;font-family:SF Mono;color:#000;line-height:1.2;pointer-events:all;white-space:normal;overflow-wrap:normal">runtime</div></div></div></foreignObject><text x="130" y="35" font-family="SF Mono" font-size="18" text-anchor="middle">runtime</text></switch><switch><g requiredFeatures="http://www.w3.org/TR/SVG11/feature#Extensibility"/><a xlink:href="https://www.diagrams.net/doc/faq/svg-export-text-problems" target="_blank" transform="translate(0 -5)"><text x="50%" y="100%" font-size="10" text-anchor="middle">Viewer does not support full SVG 1.1</text></a></switch></svg>

<?xml version="1.0" encoding="UTF-8"?>
<!-- Do not edit this file with editors other than diagrams.net -->
<!DOCTYPE svg PUBLIC "-//W3C//DTD SVG 1.1//EN" "http://www.w3.org/Graphics/SVG/1.1/DTD/svg11.dtd">
<svg xmlns="http://www.w3.org/2000/svg" style="background-color: rgb(255, 255, 255);" xmlns:xlink="http://www.w3.org/1999/xlink" version="1.1" width="261px" height="311px" viewBox="-0.5 -0.5 261 311" content="&lt;mxfile host=&quot;app.diagrams.net&quot; modified=&quot;2022-02-10T00:19:29.865Z&quot; agent=&quot;5.0 (X11)&quot; etag=&quot;rwQGKX_ai_mW3-mmpAjm&quot; version=&quot;15.3.5&quot; type=&quot;google&quot;&gt;&lt;diagram id=&quot;9WaUhE6j1xyS1d6kJSYx&quot; name=&quot;Page-1&quot;&gt;7Vhdb9owFP01PBYlDgnhcaVle2ilSjxs3UtlEifxZnypcSDpr5+N7QSP0a1Su2zTIiR8P3Nz7/FxYBTN1817gTfVLeSEjVCQN6PoaoRQOEFopD9B3hrNdBoYRSlobp16xZI+Eat0bjXNydZzlABM0o2vzIBzkklPh4WAve9WAPPvusElOVEsM8xOtR9pLiujTeOg138gtKzcncPAWtbYOVvFtsI57I9U0fUomgsAaVbrZk6Ybp7ri4lbnLF2hQnC5a8EXC/uVg3O+MPnFX16uHhckpvgAkW2ONm6Jya5aoAVOXD1dZnVYkd0mlAJAmqeH6RASSBkBSVwzG4ANtblC5GytbPEtQSlquSaWStpqPykw8exle5tMr2+ao6F1glcitYEodjJ9y6hFvq4g9QH5u80DJSYMbzd0kwptxILaesLJ8bLiqk2Qy0yckcEXRNJxHKDM8pLa1ShJZFnjCrPgjL3oKa1up9nR2ZV5o7PzClMLfYPd39uoNMOWmpPElBFilYFCsKwpDu/Emw3R9n5daF3QFWNKLAbOQon41kS9NfEZGidOR3PUj+pbZTJ0+NSLY4K61UHtL4EufHfgtzhALiVAr52vBX6++hF2+gVodzR+FBQjofHri16h1ltH2PD6pJydIJpH7P7ikqiJ66te3Xi+vgsgHeo0mgoFBTmwEAcckVFUaAs63BxZMmTVRInNsMCrynTzVkuVC23wKEDwI4ISZrnIXA6MNd4dxLaxsfujN/3B2vofKqjQzUJzs/YG82L5zD5zyE/45AjxpgORhloYMpIw3EQzfor8RkEfQfQt6YPdEIfI5Qwafevfs3Ftp/JY63fLy/7rdyp1KrU34Z5IpdBVWSSGOvQhPQavDPzeWcSDc077m3uNQcY/rsDRPGfNkDDM94ARc2lYtM3bXeOSVr8sN1JlpJV8ZsP8K6/bzAHJfY/jQ1x9n8wRNffAA==&lt;/diagram&gt;&lt;/mxfile&gt;"><defs><style type="text/css">@import url(https://fonts.googleapis.com/css?family=Inter);&#xa;</style></defs><g><path d="M 60 170 Q 60 170 97.31 67.39" fill="none" stroke="#000000" stroke-miterlimit="10" pointer-events="stroke"/><path d="M 99.62 61.05 L 100.77 71.05 L 97.31 67.39 L 92.31 67.97 Z" fill="#000000" stroke="#000000" stroke-miterlimit="10" pointer-events="all"/><path d="M 130 250 Q 130 250 130 67.87" fill="none" stroke="#000000" stroke-miterlimit="10" pointer-events="stroke"/><path d="M 130 61.12 L 134.5 70.12 L 130 67.87 L 125.5 70.12 Z" fill="#000000" stroke="#000000" stroke-miterlimit="10" pointer-events="all"/><rect x="70" y="250" width="120" height="60" fill="#fff2cc" stroke="#d6b656" pointer-events="all"/><g transform="translate(-0.5 -0.5)"><switch><foreignObject style="overflow: visible; text-align: left;" pointer-events="none" width="100%" height="100%" requiredFeatures="http://www.w3.org/TR/SVG11/feature#Extensibility"><div xmlns="http://www.w3.org/1999/xhtml" style="display: flex; align-items: unsafe center; justify-content: unsafe center; width: 118px; height: 1px; padding-top: 280px; margin-left: 71px;"><div style="box-sizing: border-box; font-size: 0px; text-align: center;"><div style="display: inline-block; font-size: 18px; font-family: SF Mono; color: rgb(0, 0, 0); line-height: 1.2; pointer-events: all; white-space: normal; overflow-wrap: normal;">plugin2</div></div></div></foreignObject><text x="130" y="285" fill="#000000" font-family="SF Mono" font-size="18px" text-anchor="middle">plugin2</text></switch></g><path d="M 200 170 Q 200 170 162.69 67.39" fill="none" stroke="#000000" stroke-miterlimit="10" pointer-events="stroke"/><path d="M 160.38 61.05 L 167.69 67.97 L 162.69 67.39 L 159.23 71.05 Z" fill="#000000" stroke="#000000" stroke-miterlimit="10" pointer-events="all"/><rect x="140" y="170" width="120" height="60" fill="#fff2cc" stroke="#d6b656" pointer-events="all"/><g transform="translate(-0.5 -0.5)"><switch><foreignObject style="overflow: visible; text-align: left;" pointer-events="none" width="100%" height="100%" requiredFeatures="http://www.w3.org/TR/SVG11/feature#Extensibility"><div xmlns="http://www.w3.org/1999/xhtml" style="display: flex; align-items: unsafe center; justify-content: unsafe center; width: 118px; height: 1px; padding-top: 200px; margin-left: 141px;"><div style="box-sizing: border-box; font-size: 0px; text-align: center;"><div style="display: inline-block; font-size: 18px; font-family: Helvetica; color: rgb(0, 0, 0); line-height: 1.2; pointer-events: all; white-space: normal; overflow-wrap: normal;"><font face="SF Mono">plugin3</font></div></div></div></foreignObject><text x="200" y="205" fill="#000000" font-family="Helvetica" font-size="18px" text-anchor="middle">plugin3</text></switch></g><rect x="0" y="170" width="120" height="60" fill="#fff2cc" stroke="#d6b656" pointer-events="all"/><g transform="translate(-0.5 -0.5)"><switch><foreignObject style="overflow: visible; text-align: left;" pointer-events="none" width="100%" height="100%" requiredFeatures="http://www.w3.org/TR/SVG11/feature#Extensibility"><div xmlns="http://www.w3.org/1999/xhtml" style="display: flex; align-items: unsafe center; justify-content: unsafe center; width: 118px; height: 1px; padding-top: 200px; margin-left: 1px;"><div style="box-sizing: border-box; font-size: 0px; text-align: center;"><div style="display: inline-block; font-size: 18px; font-family: Helvetica; color: rgb(0, 0, 0); line-height: 1.2; pointer-events: all; white-space: normal; overflow-wrap: normal;"><font face="SF Mono">plugin1</font></div></div></div></foreignObject><text x="60" y="205" fill="#000000" font-family="Helvetica" font-size="18px" text-anchor="middle">plugin1</text></switch></g><rect x="70" y="0" width="120" height="60" fill="#dae8fc" stroke="#6c8ebf" pointer-events="all"/><g transform="translate(-0.5 -0.5)"><switch><foreignObject style="overflow: visible; text-align: left;" pointer-events="none" width="100%" height="100%" requiredFeatures="http://www.w3.org/TR/SVG11/feature#Extensibility"><div xmlns="http://www.w3.org/1999/xhtml" style="display: flex; align-items: unsafe center; justify-content: unsafe center; width: 118px; height: 1px; padding-top: 30px; margin-left: 71px;"><div style="box-sizing: border-box; font-size: 0px; text-align: center;"><div style="display: inline-block; font-size: 18px; font-family: SF Mono; color: rgb(0, 0, 0); line-height: 1.2; pointer-events: all; white-space: normal; overflow-wrap: normal;">runtime</div></div></div></foreignObject><text x="130" y="35" fill="#000000" font-family="SF Mono" font-size="18px" text-anchor="middle">runtime</text></switch></g></g><switch><g requiredFeatures="http://www.w3.org/TR/SVG11/feature#Extensibility"/><a transform="translate(0,-5)" xlink:href="https://www.diagrams.net/doc/faq/svg-export-text-problems" target="_blank"><text text-anchor="middle" font-size="10px" x="50%" y="100%">Viewer does not support full SVG 1.1</text></a></switch></svg>
